X: 100004
M: C|
L: 1/16
K: D
uA,2 !segno!|\
(vd3f) (A3f) (de).f.g (a3f) | (d3f) (A3a) f3d fa3 |\
(d3f) (A3f) (de).f.g (a3f) | (g3A) (f3A) e3A ce3 |
(d3f) (A3f) (de)fg (a3f) | (d3f) (A3a) f3d fa3 |\
(B3g) (A3f) (G3e) (F3d) | (G3A,) (F3A,3) "^Segue Reel."E3A, CE3 "_D.C."!segno!|]


